app/assets/images/icons/settling-in.svg

<?xml version="1.0" encoding="UTF-8"?>
<svg width="47px" height="47px" viewBox="0 0 47 47" version="1.1" xmlns="http://www.w3.org/2000/svg" xmlns:xlink="http://www.w3.org/1999/xlink">
    <!-- Generator: Sketch 47 (45396) - http://www.bohemiancoding.com/sketch -->
    <title>Index_Mobile_settle_anchor</title>
    <desc>Created with Sketch.</desc>
    <defs>
        <polygon id="path-1" points="0 46.953 47 46.953 47 0 0 0"></polygon>
    </defs>
    <g id="Move.mil-Index" stroke="none" stroke-width="1" fill="none" fill-rule="evenodd">
        <g id="Index_Mobile" transform="translate(-256.000000, -564.000000)">
            <g id="Group-5" transform="translate(15.000000, 564.000000)">
                <g id="Group-2" transform="translate(241.000000, 0.000000)">
                    <g id="Group-4">
                        <path d="M40.48815,30.7803 C40.72785,30.5406 41.0913167,30.4810667 41.39055,30.6314667 L41.4829833,30.6784667 C41.63495,30.7552333 41.7563667,30.8758667 41.8339167,31.0309667 L41.8777833,31.1179167 C42.0289667,31.4202833 41.9702167,31.78375 41.7305167,32.0218833 L40.7333333,33.0190667 L39.4909667,31.7767 L40.48815,30.7803 Z M36.0333333,37.7190667 L34.7909667,36.4767 L38.3833333,32.8851167 L39.6257,34.1267 L36.0333333,37.7190667 Z M34.0656,39.6860167 L32.4096333,40.1004 L32.8240167,38.4444333 L33.6833333,37.5851167 L34.9257,38.8267 L34.0656,39.6860167 Z M33.1295167,35.9228833 L31.56285,37.48955 C31.4625833,37.5898167 31.3913,37.7159333 31.3568333,37.8538 L30.5735,40.9871333 C30.5061333,41.25425 30.58525,41.53625 30.7795167,41.7305167 C30.9275667,41.8785667 31.1281,41.9600333 31.3333333,41.9600333 C31.3967833,41.9600333 31.4602333,41.9522 31.5229,41.9365333 L34.6562333,41.1532 C34.7941,41.1187333 34.9202167,41.04745 35.0204833,40.9471833 L41.28715,34.6805167 L42.8373667,33.1303 C43.5549,32.4143333 43.7327167,31.32315 43.2776,30.4144833 L43.2337333,30.3283167 C43.0081333,29.87555 42.6344833,29.5019 42.18485,29.2778667 L42.0932,29.2308667 C41.1868833,28.7788833 40.0972667,28.9535667 39.3805167,29.6711 L33.1295167,35.9228833 L33.1295167,35.9228833 Z" id="Fill-1" fill="#0071BC"></path>
                        <path d="M32.9,7.05 C33.1616333,7.05 33.4060333,6.91918333 33.5517333,6.70141667 L34.4666667,5.32901667 L35.3816,6.70141667 C35.5273,6.91918333 35.7717,7.05 36.0333333,7.05 L36.9200667,7.05 L36.1649333,8.18191667 C36.0427333,8.36521667 36.0035667,8.5916 36.0568333,8.80623333 L36.42735,10.2875167 L34.8168167,9.48303333 C34.70715,9.42741667 34.5865167,9.4 34.4666667,9.4 C34.3468167,9.4 34.2261833,9.42741667 34.1165167,9.48225 L32.5059833,10.2867333 L32.8765,8.80545 C32.9297667,8.5916 32.8913833,8.36521667 32.7684,8.18113333 L32.0132667,7.05 L32.9,7.05 Z M31.2730167,8.76315 L30.5735,11.5604333 C30.4990833,11.8573167 30.60405,12.1698667 30.8429667,12.361 C31.0826667,12.5529167 31.4108833,12.5858167 31.6834833,12.4503 L34.4666667,11.0591 L37.24985,12.4503 C37.3603,12.5059167 37.4809333,12.5333333 37.6,12.5333333 C37.7746833,12.5333333 37.9478,12.4753667 38.0903667,12.361 C38.3292833,12.1698667 38.4334667,11.8565333 38.3598333,11.5604333 L37.6603167,8.76315 L39.0350667,6.70141667 C39.1948667,6.46093333 39.2105333,6.1523 39.0742333,5.89771667 C38.9379333,5.64313333 38.6723833,5.48333333 38.3833333,5.48333333 L36.4524167,5.48333333 L35.1184,3.48191667 C34.8277833,3.0456 34.10555,3.0456 33.8149333,3.48191667 L32.4809167,5.48333333 L30.55,5.48333333 C30.26095,5.48333333 29.9954,5.64235 29.8591,5.89693333 C29.7228,6.15151667 29.7384667,6.46093333 29.8982667,6.70063333 L31.2730167,8.76315 L31.2730167,8.76315 Z" id="Fill-2" fill="#0071BC"></path>
                        <path d="M21.9333333,7.05 C22.1949667,7.05 22.4393667,6.91918333 22.5850667,6.70141667 L23.5,5.32901667 L24.4149333,6.70141667 C24.5606333,6.91918333 24.8050333,7.05 25.0666667,7.05 L25.9534,7.05 L25.1982667,8.18191667 C25.0760667,8.36521667 25.0369,8.5916 25.0901667,8.80623333 L25.4606833,10.2875167 L23.85015,9.48303333 C23.7404833,9.42741667 23.61985,9.4 23.5,9.4 C23.38015,9.4 23.2595167,9.42741667 23.14985,9.48225 L21.5393167,10.2867333 L21.9098333,8.80545 C21.9631,8.5916 21.9247167,8.36521667 21.8017333,8.18113333 L21.0466,7.05 L21.9333333,7.05 Z M20.30635,8.76315 L19.6068333,11.5604333 C19.5324167,11.8573167 19.6373833,12.1698667 19.8763,12.361 C20.116,12.5529167 20.4442167,12.5858167 20.7168167,12.4503 L23.5,11.0591 L26.2831833,12.4503 C26.3936333,12.5059167 26.5142667,12.5333333 26.6333333,12.5333333 C26.8080167,12.5333333 26.9811333,12.4753667 27.1237,12.361 C27.3626167,12.1698667 27.4668,11.8565333 27.3931667,11.5604333 L26.69365,8.76315 L28.0684,6.70141667 C28.2282,6.46093333 28.2438667,6.1523 28.1075667,5.89771667 C27.9712667,5.64313333 27.7057167,5.48333333 27.4166667,5.48333333 L25.48575,5.48333333 L24.1517333,3.48191667 C23.8611167,3.0456 23.1388833,3.0456 22.8482667,3.48191667 L21.51425,5.48333333 L19.5833333,5.48333333 C19.2942833,5.48333333 19.0287333,5.64235 18.8924333,5.89693333 C18.7561333,6.15151667 18.7718,6.46093333 18.9316,6.70063333 L20.30635,8.76315 L20.30635,8.76315 Z" id="Fill-3" fill="#0071BC"></path>
                        <g id="Group-7">
                            <mask id="mask-2" fill="white">
                                <use xlink:href="#path-1"></use>
                            </mask>
                            <g id="Clip-5"></g>
                            <path d="M10.9666667,7.05 C11.2283,7.05 11.4727,6.91918333 11.6184,6.70141667 L12.5333333,5.32901667 L13.4482667,6.70141667 C13.5939667,6.91918333 13.8383667,7.05 14.1,7.05 L14.9867333,7.05 L14.2316,8.18191667 C14.1094,8.36521667 14.0702333,8.5916 14.1235,8.80623333 L14.4940167,10.2875167 L12.8834833,9.48303333 C12.7738167,9.42741667 12.6531833,9.4 12.5333333,9.4 C12.4134833,9.4 12.29285,9.42741667 12.1831833,9.48225 L10.57265,10.2867333 L10.9431667,8.80545 C10.9964333,8.5916 10.95805,8.36521667 10.8350667,8.18113333 L10.0799333,7.05 L10.9666667,7.05 Z M9.33968333,8.76315 L8.64016667,11.5604333 C8.56575,11.8573167 8.67071667,12.1698667 8.90963333,12.361 C9.14933333,12.5529167 9.47755,12.5858167 9.75015,12.4503 L12.5333333,11.0591 L15.3165167,12.4503 C15.4269667,12.5059167 15.5476,12.5333333 15.6666667,12.5333333 C15.84135,12.5333333 16.0144667,12.4753667 16.1570333,12.361 C16.39595,12.1698667 16.5001333,11.8565333 16.4265,11.5604333 L15.7269833,8.76315 L17.1017333,6.70141667 C17.2615333,6.46093333 17.2772,6.1523 17.1409,5.89771667 C17.0046,5.64313333 16.73905,5.48333333 16.45,5.48333333 L14.5190833,5.48333333 L13.1850667,3.48191667 C12.89445,3.0456 12.1722167,3.0456 11.8816,3.48191667 L10.5475833,5.48333333 L8.61666667,5.48333333 C8.32761667,5.48333333 8.06206667,5.64235 7.92576667,5.89693333 C7.78946667,6.15151667 7.80513333,6.46093333 7.96493333,6.70063333 L9.33968333,8.76315 L9.33968333,8.76315 Z" id="Fill-4" fill="#0071BC" mask="url(#mask-2)"></path>
                            <path d="M1.56666667,45.4333333 L45.4333333,45.4333333 L45.4333333,1.56666667 L1.56666667,1.56666667 L1.56666667,45.4333333 Z M46.2166667,0 L0.783333333,0 C0.35015,0 0,0.35015 0,0.783333333 L0,46.2166667 C0,46.64985 0.35015,47 0.783333333,47 L46.2166667,47 C46.64985,47 47,46.64985 47,46.2166667 L47,0.783333333 C47,0.35015 46.64985,0 46.2166667,0 L46.2166667,0 Z" id="Fill-6" fill="#0071BC" mask="url(#mask-2)"></path>
                        </g>
                        <path d="M10.9666667,36.8166667 C14.1564,36.8166667 16.7978,39.2136667 17.1847667,42.3 L4.74856667,42.3 C5.13553333,39.2136667 7.77693333,36.8166667 10.9666667,36.8166667 Z M7.05,31.3333333 C7.05,29.1736833 8.80701667,27.4166667 10.9666667,27.4166667 C13.1263167,27.4166667 14.8833333,29.1736833 14.8833333,31.3333333 C14.8833333,33.4929833 13.1263167,35.25 10.9666667,35.25 C8.80701667,35.25 7.05,33.4929833 7.05,31.3333333 Z M3.91666667,43.8666667 L18.0166667,43.8666667 C18.44985,43.8666667 18.8,43.5165167 18.8,43.0833333 C18.8,39.8520833 16.8322667,37.0720333 14.0334167,35.8766667 C15.4904167,34.8896667 16.45,33.2211667 16.45,31.3333333 C16.45,28.31045 13.98955,25.85 10.9666667,25.85 C7.94378333,25.85 5.48333333,28.31045 5.48333333,31.3333333 C5.48333333,33.2211667 6.44291667,34.8896667 7.89991667,35.8766667 C5.10106667,37.0720333 3.13333333,39.8520833 3.13333333,43.0833333 C3.13333333,43.5165167 3.48348333,43.8666667 3.91666667,43.8666667 L3.91666667,43.8666667 Z" id="Fill-8" fill="#0071BC"></path>
                        <path d="M28.0684,16.88475 L28.9833333,15.51235 L29.8982667,16.88475 C30.0439667,17.1025167 30.2883667,17.2333333 30.55,17.2333333 L31.4367333,17.2333333 L30.6816,18.36525 C30.5594,18.54855 30.5202333,18.7749333 30.5735,18.9895667 L30.9440167,20.47085 L29.3334833,19.6663667 C29.2238167,19.61075 29.1031833,19.5833333 28.9833333,19.5833333 C28.8634833,19.5833333 28.74285,19.61075 28.6331833,19.6655833 L27.02265,20.4700667 L27.3931667,18.9887833 C27.4464333,18.7749333 27.40805,18.54855 27.2850667,18.3644667 L26.5299333,17.2333333 L27.4166667,17.2333333 C27.6783,17.2333333 27.9227,17.1025167 28.0684,16.88475 Z M25.0666667,15.6666667 C24.7776167,15.6666667 24.5120667,15.8256833 24.3757667,16.0802667 C24.2394667,16.33485 24.2551333,16.6442667 24.4149333,16.8839667 L25.7896833,18.9457 L25.0901667,21.7429833 C25.01575,22.0398667 25.1207167,22.3524167 25.3596333,22.54355 C25.5993333,22.7354667 25.92755,22.7683667 26.20015,22.63285 L28.9833333,21.2424333 L31.7665167,22.6336333 C31.8769667,22.68925 31.9976,22.7166667 32.1166667,22.7166667 C32.29135,22.7166667 32.4644667,22.6587 32.6070333,22.5443333 C32.84595,22.3532 32.9501333,22.0398667 32.8765,21.7437667 L32.1769833,18.9464833 L33.5517333,16.88475 C33.7115333,16.6442667 33.7272,16.3356333 33.5909,16.08105 C33.4546,15.8264667 33.18905,15.6666667 32.9,15.6666667 L30.9690833,15.6666667 L29.6350667,13.66525 C29.34445,13.2289333 28.6222167,13.2289333 28.3316,13.66525 L26.9975833,15.6666667 L25.0666667,15.6666667 L25.0666667,15.6666667 Z" id="Fill-9" fill="#0071BC"></path>
                        <path d="M17.1017333,16.88475 L18.0166667,15.51235 L18.9316,16.88475 C19.0773,17.1025167 19.3217,17.2333333 19.5833333,17.2333333 L20.4700667,17.2333333 L19.7149333,18.36525 C19.5927333,18.54855 19.5535667,18.7749333 19.6068333,18.9895667 L19.97735,20.47085 L18.3668167,19.6663667 C18.25715,19.61075 18.1365167,19.5833333 18.0166667,19.5833333 C17.8968167,19.5833333 17.7761833,19.61075 17.6665167,19.6655833 L16.0559833,20.4700667 L16.4265,18.9887833 C16.4797667,18.7749333 16.4413833,18.54855 16.3184,18.3644667 L15.5632667,17.2333333 L16.45,17.2333333 C16.7116333,17.2333333 16.9560333,17.1025167 17.1017333,16.88475 Z M14.1,15.6666667 C13.81095,15.6666667 13.5454,15.8256833 13.4091,16.0802667 C13.2728,16.33485 13.2884667,16.6442667 13.4482667,16.8839667 L14.8230167,18.9457 L14.1235,21.7429833 C14.0490833,22.0398667 14.15405,22.3524167 14.3929667,22.54355 C14.6326667,22.7354667 14.9608833,22.7683667 15.2334833,22.63285 L18.0166667,21.2424333 L20.79985,22.6336333 C20.9103,22.68925 21.0309333,22.7166667 21.15,22.7166667 C21.3246833,22.7166667 21.4978,22.6587 21.6403667,22.5443333 C21.8792833,22.3532 21.9834667,22.0398667 21.9098333,21.7437667 L21.2103167,18.9464833 L22.5850667,16.88475 C22.7448667,16.6442667 22.7605333,16.3356333 22.6242333,16.08105 C22.4879333,15.8264667 22.2223833,15.6666667 21.9333333,15.6666667 L20.0024167,15.6666667 L18.6684,13.66525 C18.3777833,13.2289333 17.65555,13.2289333 17.3649333,13.66525 L16.0309167,15.6666667 L14.1,15.6666667 L14.1,15.6666667 Z" id="Fill-10" fill="#0071BC"></path>
                        <polygon id="Fill-11" fill="#0071BC" points="20.3666667 29.7666667 37.6 29.7666667 37.6 28.2 20.3666667 28.2"></polygon>
                        <polygon id="Fill-12" fill="#0071BC" points="20.3666667 32.9 34.4666667 32.9 34.4666667 31.3333333 20.3666667 31.3333333"></polygon>
                        <polygon id="Fill-13" fill="#0071BC" points="20.3666667 36.0333333 31.3333333 36.0333333 31.3333333 34.4666667 20.3666667 34.4666667"></polygon>
                        <polygon id="Fill-14" fill="#0071BC" points="20.3666667 39.1666667 29.7666667 39.1666667 29.7666667 37.6 20.3666667 37.6"></polygon>
                        <polygon id="Fill-15" fill="#0071BC" points="20.3666667 42.3 28.9833333 42.3 28.9833333 40.7333333 20.3666667 40.7333333"></polygon>
                    </g>
                </g>
            </g>
        </g>
    </g>
</svg>

<svg width="47" height="47" viewBox="0 0 47 47" xmlns="http://www.w3.org/2000/svg" xmlns:xlink="http://www.w3.org/1999/xlink"><title>Index_Mobile_settle_anchor</title><defs><path id="a" d="M0 46.953h47V0H0z"/></defs><g fill="none" fill-rule="evenodd"><path d="M40.488 30.78a.78.78 0 0 1 .903-.149l.092.047a.784.784 0 0 1 .35.353l.045.087a.78.78 0 0 1-.147.904l-.998.997-1.242-1.242.997-.997zm-4.455 6.94l-1.242-1.243 3.592-3.592 1.243 1.242-3.593 3.592zm-1.967 1.966l-1.656.414.414-1.656.86-.859 1.242 1.242-.86.859zm-.936-3.763l-1.567 1.567c-.1.1-.172.226-.206.364l-.784 3.133a.781.781 0 0 0 .95.95l3.133-.784a.784.784 0 0 0 .364-.206l6.267-6.266 1.55-1.55a2.346 2.346 0 0 0 .44-2.717l-.043-.086a2.354 2.354 0 0 0-1.05-1.05l-.09-.047a2.347 2.347 0 0 0-2.713.44l-6.251 6.252zM32.9 7.05c.262 0 .506-.13.652-.349l.915-1.372.915 1.372c.145.218.39.349.651.349h.887l-.755 1.132a.784.784 0 0 0-.108.624l.37 1.482-1.61-.805a.775.775 0 0 0-.7 0l-1.611.804.37-1.482a.782.782 0 0 0-.108-.624l-.755-1.131h.887zm-1.627 1.713l-.7 2.797a.781.781 0 0 0 1.11.89l2.784-1.39 2.783 1.39a.78.78 0 0 0 .84-.089.783.783 0 0 0 .27-.8l-.7-2.798 1.375-2.062a.784.784 0 0 0-.652-1.218h-1.93l-1.335-2.001c-.29-.436-1.012-.436-1.303 0L32.48 5.483H30.55a.784.784 0 0 0-.652 1.218l1.375 2.062zM21.933 7.05c.262 0 .506-.13.652-.349L23.5 5.33l.915 1.372c.146.218.39.349.652.349h.886l-.755 1.132a.784.784 0 0 0-.108.624l.37 1.482-1.61-.805a.775.775 0 0 0-.7 0l-1.61.804.37-1.482a.782.782 0 0 0-.108-.624l-.755-1.131h.886zm-1.627 1.713l-.7 2.797a.781.781 0 0 0 1.11.89l2.784-1.39 2.783 1.39a.78.78 0 0 0 .84-.089.783.783 0 0 0 .27-.8l-.7-2.798 1.375-2.062a.784.784 0 0 0-.651-1.218h-1.931l-1.334-2.001c-.29-.436-1.013-.436-1.304 0l-1.334 2.001h-1.93a.784.784 0 0 0-.652 1.218l1.374 2.062z" fill="#0071BC"/><g><mask id="b" fill="#fff"><use xlink:href="#a"/></mask><path d="M10.967 7.05c.261 0 .506-.13.651-.349l.915-1.372.915 1.372c.146.218.39.349.652.349h.887l-.755 1.132a.784.784 0 0 0-.108.624l.37 1.482-1.61-.805a.775.775 0 0 0-.7 0l-1.611.804.37-1.482a.782.782 0 0 0-.108-.624L10.08 7.05h.887zM9.34 8.763l-.7 2.797a.781.781 0 0 0 1.11.89l2.783-1.39 2.784 1.39a.78.78 0 0 0 .84-.089.783.783 0 0 0 .27-.8l-.7-2.798 1.375-2.062a.784.784 0 0 0-.652-1.218h-1.93l-1.335-2.001c-.29-.436-1.013-.436-1.303 0l-1.334 2.001H8.617a.784.784 0 0 0-.652 1.218L9.34 8.763z" fill="#0071BC" mask="url(#b)"/><path d="M1.567 45.433h43.866V1.567H1.567v43.866zM46.217 0H.783A.783.783 0 0 0 0 .783v45.434c0 .433.35.783.783.783h45.434c.433 0 .783-.35.783-.783V.783A.783.783 0 0 0 46.217 0z" fill="#0071BC" mask="url(#b)"/></g><path d="M10.967 36.817c3.19 0 5.83 2.397 6.218 5.483H4.749c.387-3.086 3.028-5.483 6.218-5.483zM7.05 31.333a3.921 3.921 0 0 1 3.917-3.916 3.921 3.921 0 0 1 3.916 3.916 3.921 3.921 0 0 1-3.916 3.917 3.921 3.921 0 0 1-3.917-3.917zM3.917 43.867h14.1c.433 0 .783-.35.783-.784 0-3.23-1.968-6.011-4.767-7.206a5.483 5.483 0 0 0 2.417-4.544 5.49 5.49 0 0 0-5.483-5.483 5.49 5.49 0 0 0-5.484 5.483c0 1.888.96 3.557 2.417 4.544-2.799 1.195-4.767 3.975-4.767 7.206 0 .434.35.784.784.784zM28.068 16.885l.915-1.373.915 1.373c.146.218.39.348.652.348h.887l-.755 1.132a.784.784 0 0 0-.108.625l.37 1.48-1.61-.804a.775.775 0 0 0-.7 0l-1.611.804.37-1.481a.782.782 0 0 0-.108-.625l-.755-1.13h.887c.261 0 .506-.131.651-.35zm-3.001-1.218a.784.784 0 0 0-.652 1.217l1.375 2.062-.7 2.797a.781.781 0 0 0 1.11.89l2.783-1.39 2.784 1.39a.78.78 0 0 0 .84-.089.783.783 0 0 0 .27-.8l-.7-2.798 1.375-2.061a.784.784 0 0 0-.652-1.218h-1.93l-1.335-2.002c-.29-.436-1.013-.436-1.303 0l-1.334 2.002h-1.931zM17.102 16.885l.915-1.373.915 1.373c.145.218.39.348.651.348h.887l-.755 1.132a.784.784 0 0 0-.108.625l.37 1.48-1.61-.804a.775.775 0 0 0-.7 0l-1.611.804.37-1.481a.782.782 0 0 0-.108-.625l-.755-1.13h.887c.262 0 .506-.131.652-.35zM14.1 15.667a.784.784 0 0 0-.652 1.217l1.375 2.062-.7 2.797a.781.781 0 0 0 1.11.89l2.784-1.39 2.783 1.39a.78.78 0 0 0 .84-.089.783.783 0 0 0 .27-.8l-.7-2.798 1.375-2.061a.784.784 0 0 0-.652-1.218h-1.93l-1.335-2.002c-.29-.436-1.012-.436-1.303 0l-1.334 2.002H14.1zM20.367 29.767H37.6V28.2H20.367zM20.367 32.9h14.1v-1.567h-14.1zM20.367 36.033h10.966v-1.566H20.367zM20.367 39.167h9.4V37.6h-9.4zM20.367 42.3h8.616v-1.567h-8.616z" fill="#0071BC"/></g></svg>
